symbols/web/camera/materialsymbolsrounded/camera_wght500grad200fill1_24px.svg

<svg xmlns="http://www.w3.org/2000/svg" height="24" width="24"><path d="M12.425 7.875q-.4 0-.6-.363-.2-.362 0-.687l2.7-4.625q.15-.3.488-.425.337-.125.662 0 1.9.675 3.4 1.962 1.5 1.288 2.45 3.038.225.425.025.762-.2.338-.725.338Zm-5 1.7-2.65-4.65q-.175-.3-.125-.638.05-.337.3-.562 1.425-1.2 3.163-1.888 1.737-.687 3.737-.712.125 0 .212-.013.088-.012.213-.012.5.025.675.375.175.35-.075.8l-4.225 7.3q-.225.35-.612.35-.388 0-.613-.35Zm-5.15 5.15q-.35 0-.637-.225-.288-.225-.338-.525-.1-.5-.137-.987-.038-.488-.038-.988 0-1.55.413-2.963.412-1.412 1.187-2.662.25-.425.637-.413.388.013.638.463l4.2 7.25q.2.35 0 .7t-.6.35ZM8.35 22.25q-1.9-.65-3.412-1.962-1.513-1.313-2.463-3.063-.225-.425-.025-.763.2-.337.725-.337h8.35q.425 0 .625.363.2.362 0 .687L9.5 21.8q-.15.3-.488.438-.337.137-.662.012Zm3.775.625q-.1 0-.175.012-.075.013-.175.013-.5-.025-.675-.375-.175-.35.075-.775l4.175-7.325q.225-.35.625-.35t.6.35l2.65 4.65q.175.3.113.637-.063.338-.313.563-1.4 1.175-3.15 1.875t-3.75.725Zm7.875-5.3-4.2-7.25q-.225-.35-.012-.7.212-.35.612-.35h5.325q.35 0 .625.225t.35.525q.075.5.125.987.05.488.05.988 0 1.55-.413 2.975-.412 1.425-1.187 2.65-.25.425-.637.413-.388-.013-.638-.463Z"/></svg>

<svg xmlns="http://www.w3.org/2000/svg" height="24" width="24"><path d="M12.425 7.875Q12.025 7.875 11.825 7.512Q11.625 7.15 11.825 6.825L14.525 2.2Q14.675 1.9 15.013 1.775Q15.35 1.65 15.675 1.775Q17.575 2.45 19.075 3.737Q20.575 5.025 21.525 6.775Q21.75 7.2 21.55 7.537Q21.35 7.875 20.825 7.875ZM7.425 9.575 4.775 4.925Q4.6 4.625 4.65 4.287Q4.7 3.95 4.95 3.725Q6.375 2.525 8.113 1.837Q9.85 1.15 11.85 1.125Q11.975 1.125 12.062 1.112Q12.15 1.1 12.275 1.1Q12.775 1.125 12.95 1.475Q13.125 1.825 12.875 2.275L8.65 9.575Q8.425 9.925 8.038 9.925Q7.65 9.925 7.425 9.575ZM2.275 14.725Q1.925 14.725 1.638 14.5Q1.35 14.275 1.3 13.975Q1.2 13.475 1.163 12.988Q1.125 12.5 1.125 12Q1.125 10.45 1.538 9.037Q1.95 7.625 2.725 6.375Q2.975 5.95 3.362 5.962Q3.75 5.975 4 6.425L8.2 13.675Q8.4 14.025 8.2 14.375Q8 14.725 7.6 14.725ZM8.35 22.25Q6.45 21.6 4.938 20.288Q3.425 18.975 2.475 17.225Q2.25 16.8 2.45 16.462Q2.65 16.125 3.175 16.125H11.525Q11.95 16.125 12.15 16.488Q12.35 16.85 12.15 17.175L9.5 21.8Q9.35 22.1 9.012 22.238Q8.675 22.375 8.35 22.25ZM12.125 22.875Q12.025 22.875 11.95 22.887Q11.875 22.9 11.775 22.9Q11.275 22.875 11.1 22.525Q10.925 22.175 11.175 21.75L15.35 14.425Q15.575 14.075 15.975 14.075Q16.375 14.075 16.575 14.425L19.225 19.075Q19.4 19.375 19.338 19.712Q19.275 20.05 19.025 20.275Q17.625 21.45 15.875 22.15Q14.125 22.85 12.125 22.875ZM20 17.575 15.8 10.325Q15.575 9.975 15.788 9.625Q16 9.275 16.4 9.275H21.725Q22.075 9.275 22.35 9.5Q22.625 9.725 22.7 10.025Q22.775 10.525 22.825 11.012Q22.875 11.5 22.875 12Q22.875 13.55 22.462 14.975Q22.05 16.4 21.275 17.625Q21.025 18.05 20.638 18.038Q20.25 18.025 20 17.575Z"/></svg>
